X: 11123
T: JENNY NETTLES
Q: "Reel."
%R: reel
B: W. Hamilton "Universal Tune-Book" Vol. 1 Glasgow 1844 p.113 #3
S: http://imslp.org/wiki/Hamilton's_Universal_Tune-Book_(Various)
Z: 2016 John Chambers <jc:trillian.mit.edu>
M: C
L: 1/8
K: A
%%slurgraces yes
%%graceslurs yes
% - - - - - - - - - - - - - - - - - - - - - - - - -
A/B/ |\
{AB}c2B2 A2a2 | e^fge dBGB |\
{AB}c2B2 A2a2 | ge^fd e2A :| B |\
c>deA c>deA | d/c/B/A/ Gd BGdB |
c>deA cdea | ge^fd e2AB |\
c>deA c>deA | BAGd BGdB |\
c>deA c>deA | BcdB {B}e2A |] B |\
c>de^f g>age |
gage d/c/B/A/ GB |\
c>de^f eage | aba^g a2AB |\
c>de^f gage | gage {d}cB/A/ GB |\
cde^f gagf | ea^gb a2A |]
% - - - - - - - - - - - - - - - - - - - - - - - - -

%%sep 1 1 500
%%sep 1 1 500

